pix_plugins/assignfeedback/editpdf/comment.svg

<!DOCTYPE svg PUBLIC "-//W3C//DTD SVG 1.1//EN" "http://www.w3.org/Graphics/SVG/1.1/DTD/svg11.dtd" [
	<!ENTITY ns_flows "http://ns.adobe.com/Flows/1.0/">
]><svg xmlns="http://www.w3.org/2000/svg" width="16" height="16" viewBox="0 0 16 16" preserveAspectRatio="xMinYMid meet" overflow="visible"><path d="M15 0h-14c-.5 0-1 .5-1 1v14c0 .5.5 1 1 1h14c.5 0 1-.5 1-1v-14c0-.5-.5-1-1-1zm-5 12h-7v-1h7v1zm3-2h-10v-1h10v1zm0-2h-10v-1h10v1zm0-2h-10v-1h10v1zm0-2h-10v-1h10v1z" fill="#999"/></svg>

<!DOCTYPE svg PUBLIC "-//W3C//DTD SVG 1.1//EN" "http://www.w3.org/Graphics/SVG/1.1/DTD/svg11.dtd" [
	<!ENTITY ns_flows "http://ns.adobe.com/Flows/1.0/">
]><svg xmlns="http://www.w3.org/2000/svg" width="16" height="16" viewBox="0 0 16 16" preserveAspectRatio="xMinYMid meet" overflow="visible"><path d="M15 0H1C.5 0 0 .5 0 1v14c0 .5.5 1 1 1h14c.5 0 1-.5 1-1V1c0-.5-.5-1-1-1zm-5 12H3v-1h7v1zm3-2H3V9h10v1zm0-2H3V7h10v1zm0-2H3V5h10v1zm0-2H3V3h10v1z" fill="#999"/></svg>
